teeny/solid/mobile.svg

<svg width="15" height="15" viewBox="0 0 15 15" fill="none" xmlns="http://www.w3.org/2000/svg">
<path fill-rule="evenodd" clip-rule="evenodd" d="M2 1.5C2 0.671573 2.67157 0 3.5 0H11.5C12.3284 0 13 0.671573 13 1.5V13.5C13 14.3284 12.3284 15 11.5 15H3.5C2.67157 15 2 14.3284 2 13.5V1.5ZM6 12H9V11H6V12Z" fill="black"/>
</svg>

<svg viewBox="0 0 15 15" xmlns="http://www.w3.org/2000/svg"><path fill-rule="evenodd" d="M2 1.5C2 .67 2.67 0 3.5 0h8c.82 0 1.5.67 1.5 1.5v12c0 .82-.68 1.5-1.5 1.5h-8c-.83 0-1.5-.68-1.5-1.5v-12ZM6 12h3v-1H6v1Z"/></svg>
